#define icon_width 32
#define icon_height 32
static char icon_bits[] = {
  0xFF, 0xFF, 0xFF, 0xFF, 0xFF, 0xFF, 0xFF, 0xFF, 0xFF, 0xFF, 0xFF, 0xFF, 
  0xFF, 0xFF, 0xFF, 0xFF, 0xFF, 0xFF, 0xFF, 0xFF, 0xFF, 0xFF, 0xFF, 0xFF, 
  0xFF, 0xFF, 0xFF, 0xFF, 0x00, 0x80, 0xFF, 0xFF, 0xFD, 0x80, 0xFF, 0xFF, 
  0xFC, 0xF0, 0xFF, 0xFF, 0x8C, 0xF1, 0x8F, 0xFF, 0x98, 0xD9, 0x8F, 0xFF, 
  0x18, 0xD9, 0xCF, 0xFF, 0x10, 0x8F, 0xC7, 0xE0, 0x30, 0x8F, 0x67, 0xE0, 
  0x30, 0x06, 0x63, 0xE0, 0x60, 0x26, 0x33, 0xE0, 0x60, 0x24, 0x32, 0xE0, 
  0x47, 0x70, 0x10, 0xE0, 0xC7, 0x70, 0x18, 0xE0, 0x87, 0xD8, 0x18, 0xE0, 
  0x87, 0xD9, 0x0C, 0xE0, 0x07, 0x89, 0x0D, 0xE0, 0x07, 0x8F, 0xFF, 0xFF, 
  0xFF, 0xFF, 0xFF, 0xFF, 0xFF, 0xFF, 0xFF, 0xFF, 0xFF, 0xFF, 0xFF, 0xFF, 
  0xFF, 0xFF, 0xFF, 0xFF, 0xFF, 0xFF, 0xFF, 0xFF, 0xFF, 0xFF, 0xFF, 0xFF, 
  0xFF, 0xFF, 0xFF, 0xFF, 0xFF, 0xFF, 0xFF, 0xFF, };
